img/apple-logo.svg

<svg width="220" height="261" viewBox="0 0 220 261" fill="none" xmlns="http://www.w3.org/2000/svg">
<path d="M219.065 190.96C217.564 195.194 216.062 199.155 214.561 202.98C210.602 211.995 205.961 220.327 200.638 228.112C193.267 238.63 187.261 245.869 182.62 249.83C175.522 256.387 167.741 259.802 159.551 259.938C153.682 259.938 146.584 258.299 138.257 254.884C129.931 251.469 122.287 249.83 115.325 249.83C107.954 249.83 100.174 251.469 91.7106 254.884C83.2476 258.299 76.5591 260.075 71.3721 260.211C63.4551 260.484 55.6746 257.07 47.7576 249.83C42.7071 245.46 36.4281 237.947 28.9206 227.293C20.8671 215.956 14.1786 202.843 8.99157 187.818C3.39507 171.564 0.66507 155.856 0.66507 140.694C0.66507 123.347 4.48707 108.322 11.9946 95.7559C17.8641 85.6481 25.7811 77.7259 35.6091 71.8525C45.4371 65.9791 56.0841 62.9741 67.5501 62.8375C73.8291 62.8375 82.0191 64.7497 92.2566 68.5743C102.494 72.3988 109.046 74.3111 111.913 74.3111C114.097 74.3111 121.331 71.9891 133.616 67.4815C145.219 63.2472 155.047 61.6082 163.1 62.2911C184.94 64.0668 201.32 72.672 212.24 88.1068C192.721 99.9902 183.029 116.518 183.302 137.826C183.439 154.353 189.445 168.149 201.32 179.076C206.507 184.267 212.377 188.091 219.065 190.96ZM164.192 0.825195C164.329 2.60088 164.465 4.23996 164.465 6.01564C164.465 18.9918 159.688 31.1484 150.269 42.3488C138.803 55.7347 125.017 63.3838 110.138 62.1545C110.002 60.652 109.865 59.0129 109.865 57.2372C109.865 44.8075 115.325 31.4216 124.88 20.4943C129.658 15.0306 135.8 10.3865 143.171 6.6986C150.679 3.14723 157.64 1.09838 164.192 0.825195Z" fill="#333333"/>
</svg>

<svg width="220" height="261" fill="none" xmlns="http://www.w3.org/2000/svg"><path d="M219.065 190.96a382.537 382.537 0 0 1-4.504 12.02c-3.959 9.015-8.6 17.347-13.923 25.132-7.371 10.518-13.377 17.757-18.018 21.718-7.098 6.557-14.879 9.972-23.069 10.108-5.869 0-12.967-1.639-21.294-5.054-8.326-3.415-15.97-5.054-22.932-5.054-7.371 0-15.151 1.639-23.614 5.054-8.463 3.415-15.152 5.191-20.339 5.327-7.917.273-15.697-3.141-23.614-10.381-5.05-4.37-11.33-11.883-18.837-22.537-8.054-11.337-14.742-24.45-19.93-39.475C3.396 171.564.666 155.856.666 140.694c0-17.347 3.822-32.372 11.33-44.938 5.87-10.108 13.786-18.03 23.614-23.903 9.828-5.874 20.475-8.879 31.941-9.015 6.28 0 14.47 1.912 24.707 5.736 10.237 3.825 16.789 5.737 19.656 5.737 2.184 0 9.418-2.322 21.703-6.83 11.603-4.234 21.431-5.873 29.484-5.19 21.84 1.776 38.22 10.381 49.14 25.816-19.519 11.883-29.211 28.411-28.938 49.719.137 16.527 6.143 30.323 18.018 41.25 5.187 5.191 11.057 9.015 17.745 11.884ZM164.192.825c.137 1.776.273 3.415.273 5.19 0 12.977-4.777 25.133-14.196 36.334-11.466 13.386-25.252 21.035-40.131 19.806-.136-1.503-.273-3.142-.273-4.918 0-12.43 5.46-25.815 15.015-36.743 4.778-5.463 10.92-10.107 18.291-13.795 7.508-3.552 14.469-5.6 21.021-5.874Z" fill="#333"/></svg>
